X:1
T:Title
%%score 1 { ( 2 6 7 ) | ( 3 4 5 ) }
L:1/8
Q:1/4=100
M:4/4
K:F
V:1 treble nm="Akkordion"
V:2 treble nm="Grand Piano"
V:6 treble 
V:7 treble 
V:3 bass 
V:4 bass 
V:5 bass 
V:1
 A2 A2 c2 c2 | F4 A4 | D2 D2 F2 F2 | C8 | A2 A2 G2 G2 |[M:5/4] F4 d6 |[M:4/4] F2 A2 E2 A2 | D8 | %8
w: E.~O.~Excell * * *||||||||
 B2 B2 A2 A2 | G4 C4 | A2 A2 =B2 B2 | c4 d2 e2 | f2 c2 A2 F2 | f4 F2 G2 | A2 A2 G2 G2 | F8 | z8 | %17
w: |||||||||
 z8 | z8 | z8 | z8 | z8 | z8 | z8 | z8 | z8 | z8 | z8 |] %28
w: |||||||||||
V:2
 (3[CFA]AA (3AAA (3[CGc]cc (3ccc | (3[A,DF]FF (3FFF (3[A,^CEA]AA (3AAA | %2
 (3[F,B,D]DD (3DD[K:treble]D (3[F,A,F]FF (3FFF | (3[A,C]CC (3CCC[K:bass] [F,A,C]2 [F,A,C]2 | %4
 (3[CFA]AA (3AAA (3[A,^CG]GG (3GGG |[M:5/4] (3[A,DF]FF (3FFF (3[DFGd]dd d4 | %6
[M:4/4] (3[A,DF]FF (3AAA (3[G,A,^CE]EE (3AAA | (3[F,A,D]DD (3DDD [F,A,D]2 [F,A,D]2 | %8
 (3[CEB]BB (3BBB (3[CEA]AA (3AAA | (3[B,CEG]GG (3GGG[K:bass] [E,G,B,C]2 [B,C]2 | %10
 (3[CFA]AA (3[DFA]AA (3[DFG=B][GB][GB] (3[DFGB][GB][GB] | (3[EGc]cc c2 (3[F=Bd]dd e2 | %12
 (3[FAcf]ff c2 (3[CFA]AA F2 | (3[F,B,F]FF F2 (3[F,=B,F]FF [G,B,F]2 | %14
 (3[CFA]AA [=B,DFA]2 (3[B,DFG][FG][FG] (3[_B,CEG][EG][EG] | (3[A,CF]FF (3[A,CF][CF][CF] [A,CF]4 | %16
 [A,CF]2 [A,CF]2 [A,CF]2 [A,CF]2 | F2 .E2 E2 F2 | G2 G2 G2 FG | A8[K:bass] | %20
 [Ac]2 [Ac]2 [Bf]2 [Be]2 | [Af]4 [CFc]4 | [FB]2 z2 z4 | [A,F]8 | [Af]2 [Ac]2 [FA]2 F2 | %25
 [Ff]4 [=B,F]2 [B,FG]2 | [CFA]2 [=B,DFA]2 [B,DFG]2 [_B,CEG]2 | [A,CF]8 |] %28
V:3
 (3z[K:treble] [CF][CF] z2[K:bass] (3z[K:treble] [CG][CG] z2 | %1
 (3z [A,D][A,D] z2 (3z [A,^CE][A,CE] z2 | (3z [F,B,][F,B,] z2 (3z [F,A,][F,A,] z2 | %3
 z2 (3A,A,A, z4 | (3z[K:treble] [CF][CF] z2[K:bass] (3z [A,^C][A,C] z2 | %5
[M:5/4] (3z [A,D][A,D] z2 (3z[K:treble] [DFG][DFG] z4 | %6
[M:4/4][K:bass] z2[K:treble] (3[A,DF][A,DF][A,DF][K:bass] z2[K:treble] (3[A,^CEG][A,CEG][K:bass][A,CE] | %7
 z2 (3[F,A,][F,A,][F,A,] z4 | z2[K:treble] (3[DE][DE][DE][K:bass] z2[K:treble] [CDF]<.[CE] | %9
 z2 (3[B,CE][B,CE][B,CE] z4 | %10
 (3z[K:treble] [CF][CF][K:bass] (3z[K:treble] [DF][DF][K:bass] (3z[K:treble] [DF][DF][K:bass] (3z[K:treble] [DF][DF] | %11
 z2[K:treble] [EG]2[K:bass] z2[K:treble] [G_Bc]2 | %12
 (3z[K:treble] [FAc][FAc] z2[K:bass] (3z[K:treble] [CF][CF][K:bass] z2 | %13
 (3z [F,B,][F,B,] z2 (3z [F,=B,][F,B,] [D,,E,]2 | %14
 (3z[K:treble] [CF][CF][K:bass] [D,,D,]2 (3z [=B,D][B,D] (3z [_B,C][B,C] | %15
 (3z [A,C][A,C] (3z A,A, F,,,4 | F,2 C,2 F,2 C,2 | G,2 z D G,2 C,2 | %18
 [E,B,C]2 [C,B,C]2 [E,B,C]2 [C,B,C]2 | C6[K:treble] C2 | [F,F]2 [F,F]2 [G,C]2 [G,C]2 | %21
 [A,C]4 A,,4 | B,,2 z C C,3 F, | F,8 | [F,C]2 [F,F]2 [_E,C]2 [E,A,]2 | [D,B,]4 ^C,2 D,2 | %26
 C,2 D,2 G,,2 C,2 | F,8 |] %28
V:4
 z2[K:treble] (3[CF][CF][CF][K:bass] z2[K:treble] (3[CG][CG][CG] | %1
 z2 (3[A,D][A,D][A,D] z2 (3[A,^CE][A,CE][A,CE] | z2 (3[F,B,][F,B,][F,B,] z2 (3[F,A,][F,A,][F,A,] | %3
 [F,,F,]4 z4 | z2[K:treble] (3[CF][CF][CF][K:bass] z2 (3[A,^C][A,C][A,C] | %5
[M:5/4] z2 (3[A,D][A,D][A,D] z2[K:treble] [DFG]4 | %6
[M:4/4][K:bass] (3z [A,D][K:treble][A,D] z2[K:bass] (3z [G,A,^C][K:treble][G,A,C] z2[K:bass] | %7
 (3z [F,A,][F,A,] z2 [D,,D,]4 | (3z[K:treble] [CE][CE] z2[K:bass] (3z [CE][K:treble][CE] z2 | %9
 (3z [B,CE][B,CE] z2 z2 [E,G,]2 | %10
 F,,2[K:treble][K:bass] D,2[K:treble][K:bass] G,,2[K:treble][K:bass] D,2[K:treble] | %11
 (3z[K:treble] [EG][EG] z2[K:bass] (3z[K:treble] [F=B][FB] z2 | %12
 z2[K:treble] [CFA]2[K:bass] z2[K:treble][K:bass] [A,C]2 | z2 [F,B,]2 ^C,2 z2 | %14
 C,2[K:treble][K:bass] z2 F,,2 C,2 | F,2 C,2 z4 | x8 | z2 C,2 z4 | x8 | [F,A,]2 z2 z4[K:treble] | %20
 x8 | x8 | z2 G,,2 z4 | x8 | x8 | x8 | x8 | x8 |] %28
V:5
 [F,,F,]4[K:treble][K:bass] [E,,E,]4[K:treble] | [D,,D,]4 [A,,,A,,]4 | [B,,,B,,]4 [D,,D,]4 | %3
 (3z A,A, z2 [F,,,F,,]4 | [F,,F,]4[K:treble][K:bass] [E,,E,]4 | %5
[M:5/4] [D,,D,]4 [B,,,B,,]6[K:treble] | %6
[M:4/4][K:bass] [A,,,A,,]4[K:treble][K:bass] [A,,,A,,]4[K:treble][K:bass] | [D,,D,]4 z4 | %8
 [C,,C,]4[K:treble][K:bass] [C,,C,]4[K:treble] | [C,,C,]4 [C,,C,]4 | %10
 F,,,2[K:treble][K:bass] D,,2[K:treble][K:bass] G,,,2[K:treble][K:bass] D,,2[K:treble] | %11
 [C,,C,]4[K:treble][K:bass] [C,C]4[K:treble] | %12
 [F,,F,]4[K:treble][K:bass] [_E,,_E,]4[K:treble][K:bass] | [D,,D,]4 ^C,,2 z2 | %14
 C,,2[K:treble][K:bass] z2 A,,,2 C,,2 | F,,2 C,,2 z4 | x8 | x8 | x8 | x6[K:treble] x2 | x8 | x8 | %22
 x8 | x8 | x8 | x8 | x8 | x8 |] %28
V:6
 x8 | x8 | x10/3[K:treble] x14/3 | x4[K:bass] x4 | x8 |[M:5/4] x10 |[M:4/4] x8 | x8 | x8 | %9
 x4[K:bass] x4 | x8 | x8 | x8 | x8 | x8 | x8 | x8 | [B,C]4 [B,C]4 | x8 | z4[K:bass] A,2 z2 | x8 | %21
 x8 | D2- [DFA]2 [B,EG]3 [A,F] | x8 | x8 | x8 | x8 | x8 |] %28
V:7
 x8 | x8 | x10/3[K:treble] x14/3 | x4[K:bass] x4 | x8 |[M:5/4] x10 |[M:4/4] x8 | x8 | x8 | %9
 x4[K:bass] x4 | x8 | x8 | x8 | x8 | x8 | x8 | x8 | x8 | x8 | z2[K:bass] F,6 | x8 | x8 | x8 | x8 | %24
 x8 | x8 | x8 | x8 |] %28

